X:2339
T:Untitled 
C:Traditional
O:Isle of Man
Z:Kiaull Vannin 339 
L:1/4
M:4/4 
Q:100 
K:G 
E BA B|EB A B|EB A d|c GA B|A E GF|E2z2| 
E BA B|EB A B|EB A B|c G AB|AEG F|E2 z2|| 

